X: 7
T: Bo Mhin Na Toitean
R: strathspey
M: 4/4
L: 1/8
K: Amix
|:A2e2 e2dB | d2 ef ge a2 | A2e2 e2dB | aged BedB |
A2e2 e2dB | d2 ef ge a2 | gedB egdB | B2 A2 AB =cB :||
|:A2 a2 a2 ge | d2 ef ge a2 | A2a2 a2ge | aged BedB|
A2a2 a2ge | d2 ef ge a2 | gedB egdB |B2 A2 AB =cB :||


Tune 5252	Setting 25081

